; G-Code generated by Simplify3D(R) Version 3.1.1
; Feb 26, 2017 at 3:53:36 
; Settings Summary
;   processName,Process1
;   applyToModels,MAX!_PCB
;   profileName,Test (modified)
;   profileVersion,2017-02-20 08:14:17
;   baseProfile,Default
;   printMaterial,PLA
;   printQuality,Medium
;   printExtruders,
;   extruderName,Primary Extruder
;   extruderToolheadNumber,0
;   extruderDiameter,0.4
;   extruderAutoWidth,0
;   extruderWidth,0.48
;   extrusionMultiplier,0.9
;   extruderUseRetract,1
;   extruderRetractionDistance,2
;   extruderExtraRestartDistance,0
;   extruderRetractionZLift,0.4
;   extruderRetractionSpeed,1800
;   extruderUseCoasting,0
;   extruderCoastingDistance,0.2
;   extruderUseWipe,0
;   extruderWipeDistance,5
;   primaryExtruder,0
;   layerHeight,0.15
;   topSolidLayers,6
;   bottomSolidLayers,6
;   perimeterOutlines,4
;   printPerimetersInsideOut,1
;   startPointOption,2
;   startPointOriginX,0
;   startPointOriginY,0
;   startPointOriginZ,300
;   sequentialIslands,0
;   spiralVaseMode,0
;   firstLayerHeightPercentage,100
;   firstLayerWidthPercentage,100
;   firstLayerUnderspeed,0.5
;   useRaft,0
;   raftExtruder,0
;   raftLayers,3
;   raftOffset,3
;   raftSeparationDistance,0.14
;   raftInfill,85
;   disableRaftBaseLayers,0
;   useSkirt,1
;   skirtExtruder,0
;   skirtLayers,1
;   skirtOutlines,5
;   skirtOffset,6
;   usePrimePillar,0
;   primePillarExtruder,999
;   primePillarWidth,12
;   primePillarLocation,7
;   primePillarSpeedMultiplier,1
;   useOozeShield,0
;   oozeShieldExtruder,999
;   oozeShieldOffset,2
;   oozeShieldOutlines,1
;   oozeShieldSidewallShape,1
;   oozeShieldSidewallAngle,30
;   oozeShieldSpeedMultiplier,1
;   infillExtruder,0
;   internalInfillPattern,Full Honeycomb
;   externalInfillPattern,Rectilinear
;   infillPercentage,15
;   outlineOverlapPercentage,15
;   infillExtrusionWidthPercentage,100
;   minInfillLength,2
;   infillLayerInterval,1
;   infillAngles,0,120,-120
;   overlapInfillAngles,0
;   generateSupport,0
;   supportExtruder,0
;   supportInfillPercentage,30
;   supportExtraInflation,0
;   denseSupportLayers,0
;   denseSupportInfillPercentage,70
;   supportLayerInterval,1
;   supportHorizontalPartOffset,0.3
;   supportUpperSeparationLayers,1
;   supportLowerSeparationLayers,1
;   supportType,0
;   supportGridSpacing,4
;   maxOverhangAngle,45
;   supportAngles,0
;   temperatureName,Primary Extruder,Heat Bed
;   temperatureNumber,0,1
;   temperatureSetpointCount,1,1
;   temperatureSetpointLayers,1,1
;   temperatureSetpointTemperatures,200,70
;   temperatureStabilizeAtStartup,1,1
;   temperatureHeatedBed,0,1
;   temperatureRelayBetweenLayers,0,0
;   temperatureRelayBetweenLoops,0,0
;   fanLayers,1,2
;   fanSpeeds,0,100
;   blipFanToFullPower,1
;   adjustSpeedForCooling,0
;   minSpeedLayerTime,30
;   minCoolingSpeedSlowdown,50
;   increaseFanForCooling,0
;   minFanLayerTime,45
;   maxCoolingFanSpeed,100
;   increaseFanForBridging,0
;   bridgingFanSpeed,100
;   use5D,1
;   relativeEdistances,0
;   allowEaxisZeroing,1
;   independentExtruderAxes,0
;   includeM10123,0
;   stickySupport,1
;   applyToolheadOffsets,0
;   gcodeXoffset,0
;   gcodeYoffset,0
;   gcodeZoffset,0
;   overrideMachineDefinition,0
;   machineTypeOverride,0
;   strokeXoverride,200
;   strokeYoverride,200
;   strokeZoverride,200
;   originOffsetXoverride,0
;   originOffsetYoverride,0
;   originOffsetZoverride,0
;   homeXdirOverride,-1
;   homeYdirOverride,-1
;   homeZdirOverride,-1
;   flipXoverride,1
;   flipYoverride,-1
;   flipZoverride,1
;   toolheadOffsets,0,0|0,0|0,0|0,0|0,0|0,0
;   overrideFirmwareConfiguration,0
;   firmwareTypeOverride,RepRap (Marlin/Repetier/Sprinter)
;   GPXconfigOverride,r2
;   baudRateOverride,115200
;   overridePrinterModels,0
;   printerModelsOverride
;   startingGcode,G21 ;metric values,G90 ;absolute positioning,M82 ;set extruder to absolute mode,M107 ;start with the fan off,G28 X0 Y0 ;move X/Y to min endstops,G28 Z0 ;move Z to min endstops,G1 Z15.0 F9000 ;move the platform down 15mm,G92 E0 ;zero the extruded length,G1 F200 E3 ;extrude 3mm of feed stock,G92 E0 ;zero the extruded length again,G1 F9000,M117 Printing...
;   layerChangeGcode,
;   retractionGcode,
;   toolChangeGcode,
;   endingGcode,M104 S0 ;extruder heater off,M140 S0 ;heated bed heater off,G91 ;relative positioning,G1 E-1 F300  ;retract the filament a bit before lifting the nozzle to release some of the pressure,G1 Z+0.5 E-5 X-20 Y-20 F9000 ;move Z up a bit and retract filament even more,G28 X0 Y0 ;move X/Y to min endstops so the head is out of the way,G21 ;metric values,G90 ;absolute positioning,G1 Z95.0 F9000 ;move the platform down,M84 ;steppers off,G90 ;absolute positioning,G1 F9000,M117 End!
;   exportFileFormat,gcode
;   celebration,0
;   celebrationSong,Random Song
;   postProcessing,
;   defaultSpeed,3000
;   outlineUnderspeed,0.6
;   solidInfillUnderspeed,0.8
;   supportUnderspeed,0.8
;   rapidXYspeed,3600
;   rapidZspeed,1000
;   minBridgingArea,50
;   bridgingExtraInflation,0
;   bridgingExtrusionMultiplier,1
;   bridgingSpeedMultiplier,1
;   filamentDiameter,1.75
;   filamentPricePerKg,46
;   filamentDensity,1.25
;   useMinPrintHeight,0
;   minPrintHeight,0
;   useMaxPrintHeight,0
;   maxPrintHeight,0
;   useDiaphragm,0
;   diaphragmLayerInterval,20
;   robustSlicing,1
;   mergeAllIntoSolid,0
;   onlyRetractWhenCrossingOutline,1
;   retractBetweenLayers,1
;   useRetractionMinTravel,0
;   retractionMinTravel,3
;   retractWhileWiping,0
;   onlyWipeOutlines,1
;   avoidCrossingOutline,0
;   maxMovementDetourFactor,3
;   toolChangeRetractionDistance,12
;   toolChangeExtraRestartDistance,-0.5
;   toolChangeRetractionSpeed,600
;   allowThinWallGapFill,1
;   thinWallAllowedOverlapPercentage,10
;   horizontalSizeCompensation,0
G90
M82
M106 S0
M140 S70
M190 S70
M104 S200 T0
M109 S200 T0
G21 ;metric values
G90 ;absolute positioning
M82 ;set extruder to absolute mode
M107 ;start with the fan off
G28 X0 Y0 ;move X/Y to min endstops
G28 Z0 ;move Z to min endstops
G1 Z15.0 F9000 ;move the platform down 15mm
G92 E0 ;zero the extruded length
G1 F200 E3 ;extrude 3mm of feed stock
G92 E0 ;zero the extruded length again
G1 F9000
M117 Printing...
G92 E0
G1 E-2.0000 F1800
G1 Z0.550 F1000
; layer 1, Z = 0.15
T0
; tool H0.150 W0.480
; skirt
G1 X49.841 Y47.119 F3600
G1 Z0.150 F1000
G1 E0.0000 F540
G92 E0
G1 X50.635 Y46.790 E0.0232 F1500
G1 X78.690 Y46.790 E0.7790
G1 X78.690 Y43.135 E0.8774
G1 X79.019 Y42.341 E0.9006
G1 X83.141 Y38.219 E1.0576
G1 X83.935 Y37.890 E1.0808
G1 X92.665 Y37.890 E1.3160
G1 X93.459 Y38.219 E1.3391
G1 X97.581 Y42.341 E1.4962
G1 X97.910 Y43.135 E1.5193
G1 X97.910 Y46.790 E1.6178
G1 X99.365 Y46.790 E1.6570
G1 X100.159 Y47.119 E1.6802
G1 X104.281 Y51.241 E1.8372
G1 X104.610 Y52.035 E1.8604
G1 X104.610 Y58.920 E2.0459
G1 X107.631 Y61.941 E2.1610
G1 X107.960 Y62.735 E2.1841
G1 X107.960 Y67.070 E2.3009
G1 X110.831 Y69.941 E2.4103
G1 X111.160 Y70.735 E2.4334
G1 X111.160 Y106.865 E3.4068
G1 X110.831 Y107.659 E3.4300
G1 X106.709 Y111.781 E3.5870
G1 X105.915 Y112.110 E3.6102
G1 X44.085 Y112.110 E5.2759
G1 X43.291 Y111.781 E5.2991
G1 X39.169 Y107.659 E5.4561
G1 X38.840 Y106.865 E5.4793
G1 X38.840 Y70.735 E6.4526
G1 X39.169 Y69.941 E6.4758
G1 X42.040 Y67.070 E6.5852
G1 X42.040 Y62.735 E6.7020
G1 X42.369 Y61.941 E6.7251
G1 X45.390 Y58.920 E6.8402
G1 X45.390 Y52.035 E7.0257
G1 X45.719 Y51.241 E7.0489
G1 X49.841 Y47.119 E7.2059
G1 X50.113 Y47.526 F3600
G92 E0
G1 X50.731 Y47.270 E0.0180 F1500
G1 X79.170 Y47.270 E0.7842
G1 X79.170 Y43.231 E0.8930
G1 X79.426 Y42.613 E0.9110
G1 X83.413 Y38.626 E1.0629
G1 X84.031 Y38.370 E1.0809
G1 X92.569 Y38.370 E1.3110
G1 X93.187 Y38.626 E1.3290
G1 X97.174 Y42.613 E1.4809
G1 X97.430 Y43.231 E1.4989
G1 X97.430 Y47.270 E1.6077
G1 X99.269 Y47.270 E1.6573
G1 X99.887 Y47.526 E1.6753
G1 X103.874 Y51.513 E1.8272
G1 X104.130 Y52.131 E1.8452
G1 X104.130 Y59.119 E2.0335
G1 X107.224 Y62.213 E2.1514
G1 X107.480 Y62.831 E2.1694
G1 X107.480 Y67.269 E2.2890
G1 X110.424 Y70.213 E2.4011
G1 X110.680 Y70.831 E2.4191
G1 X110.680 Y106.769 E3.3874
G1 X110.424 Y107.387 E3.4054
G1 X106.437 Y111.374 E3.5573
G1 X105.819 Y111.630 E3.5753
G1 X44.181 Y111.630 E5.2359
G1 X43.563 Y111.374 E5.2539
G1 X39.576 Y107.387 E5.4058
G1 X39.320 Y106.769 E5.4238
G1 X39.320 Y70.831 E6.3920
G1 X39.576 Y70.213 E6.4100
G1 X42.520 Y67.269 E6.5222
G1 X42.520 Y62.831 E6.6418
G1 X42.776 Y62.213 E6.6598
G1 X45.870 Y59.119 E6.7777
G1 X45.870 Y52.131 E6.9659
G1 X46.126 Y51.513 E6.9839
G1 X50.113 Y47.526 E7.1359
G1 X50.385 Y47.933 F3600
G92 E0
G1 X50.826 Y47.750 E0.0129 F1500
G1 X79.650 Y47.750 E0.7894
G1 X79.650 Y43.326 E0.9086
G1 X79.833 Y42.885 E0.9214
G1 X83.685 Y39.033 E1.0682
G1 X84.126 Y38.850 E1.0811
G1 X92.474 Y38.850 E1.3060
G1 X92.915 Y39.033 E1.3188
G1 X96.767 Y42.885 E1.4656
G1 X96.950 Y43.326 E1.4785
G1 X96.950 Y47.750 E1.5977
G1 X99.174 Y47.750 E1.6576
G1 X99.615 Y47.933 E1.6704
G1 X103.467 Y51.785 E1.8172
G1 X103.650 Y52.226 E1.8301
G1 X103.650 Y59.318 E2.0211
G1 X106.817 Y62.485 E2.1418
G1 X107.000 Y62.926 E2.1547
G1 X107.000 Y67.468 E2.2770
G1 X110.017 Y70.485 E2.3920
G1 X110.200 Y70.926 E2.4048
G1 X110.200 Y106.674 E3.3679
G1 X110.017 Y107.115 E3.3808
G1 X106.165 Y110.967 E3.5275
G1 X105.724 Y111.150 E3.5404
G1 X44.276 Y111.150 E5.1959
G1 X43.835 Y110.967 E5.2087
G1 X39.983 Y107.115 E5.3555
G1 X39.800 Y106.674 E5.3683
G1 X39.800 Y70.926 E6.3314
G1 X39.983 Y70.485 E6.3443
G1 X43.000 Y67.468 E6.4592
G1 X43.000 Y62.926 E6.5816
G1 X43.183 Y62.485 E6.5945
G1 X46.350 Y59.318 E6.7151
G1 X46.350 Y52.226 E6.9062
G1 X46.533 Y51.785 E6.9190
G1 X50.385 Y47.933 E7.0658
G1 X50.657 Y48.340 F3600
G92 E0
G1 X50.921 Y48.230 E0.0077 F1500
G1 X80.130 Y48.230 E0.7946
G1 X80.130 Y43.421 E0.9242
G1 X80.240 Y43.157 E0.9319
G1 X83.957 Y39.440 E1.0735
G1 X84.221 Y39.330 E1.0812
G1 X92.379 Y39.330 E1.3010
G1 X92.643 Y39.440 E1.3087
G1 X96.360 Y43.157 E1.4503
G1 X96.470 Y43.421 E1.4580
G1 X96.470 Y48.230 E1.5876
G1 X99.078 Y48.230 E1.6579
G1 X99.343 Y48.340 E1.6656
G1 X103.060 Y52.057 E1.8072
G1 X103.170 Y52.321 E1.8149
G1 X103.170 Y59.516 E2.0088
G1 X106.410 Y62.757 E2.1322
G1 X106.520 Y63.021 E2.1399
G1 X106.520 Y67.666 E2.2651
G1 X109.610 Y70.757 E2.3828
G1 X109.720 Y71.022 E2.3905
G1 X109.720 Y106.578 E3.3485
G1 X109.610 Y106.843 E3.3562
G1 X105.893 Y110.560 E3.4978
G1 X105.629 Y110.670 E3.5055
G1 X44.371 Y110.670 E5.1558
G1 X44.107 Y110.560 E5.1635
G1 X40.390 Y106.843 E5.3052
G1 X40.280 Y106.578 E5.3129
G1 X40.280 Y71.022 E6.2708
G1 X40.390 Y70.757 E6.2785
G1 X43.480 Y67.666 E6.3963
G1 X43.480 Y63.021 E6.5214
G1 X43.590 Y62.757 E6.5291
G1 X46.830 Y59.516 E6.6526
G1 X46.830 Y52.321 E6.8464
G1 X46.940 Y52.057 E6.8541
G1 X50.657 Y48.340 E6.9958
G1 X50.929 Y48.747 F3600
G92 E0
G1 X51.017 Y48.710 E0.0026 F1500
G1 X80.610 Y48.710 E0.7998
G1 X80.610 Y43.517 E0.9397
G1 X80.647 Y43.429 E0.9423
G1 X84.229 Y39.847 E1.0788
G1 X84.317 Y39.810 E1.0814
G1 X92.283 Y39.810 E1.2960
G1 X92.371 Y39.847 E1.2985
G1 X95.953 Y43.429 E1.4350
G1 X95.990 Y43.517 E1.4376
G1 X95.990 Y48.710 E1.5775
G1 X98.983 Y48.710 E1.6581
G1 X99.071 Y48.747 E1.6607
G1 X102.653 Y52.329 E1.7972
G1 X102.690 Y52.417 E1.7998
G1 X102.690 Y59.715 E1.9964
G1 X106.003 Y63.029 E2.1226
G1 X106.040 Y63.117 E2.1252
G1 X106.040 Y67.865 E2.2531
G1 X109.203 Y71.029 E2.3737
G1 X109.240 Y71.117 E2.3762
G1 X109.240 Y106.483 E3.3290
G1 X109.203 Y106.571 E3.3316
G1 X105.621 Y110.153 E3.4681
G1 X105.533 Y110.190 E3.4706
G1 X44.467 Y110.190 E5.1158
G1 X44.379 Y110.153 E5.1184
G1 X40.797 Y106.571 E5.2549
G1 X40.760 Y106.483 E5.2574
G1 X40.760 Y71.117 E6.2102
G1 X40.797 Y71.029 E6.2128
G1 X43.960 Y67.865 E6.3333
G1 X43.960 Y63.117 E6.4612
G1 X43.997 Y63.029 E6.4638
G1 X47.310 Y59.715 E6.5901
G1 X47.310 Y52.417 E6.7867
G1 X47.347 Y52.329 E6.7892
G1 X50.929 Y48.747 E6.9257
G92 E0
G1 E-2.0000 F1800
G1 Z0.550 F1000
; inner perimeter
G1 X55.230 Y56.630 F3600
G1 Z0.150 F1000
G1 E0.0000 F1800
G92 E0
G1 X66.397 Y56.630 E0.3008 F1350
G1 X66.137 Y57.001 E0.3131
G1 X65.932 Y57.442 E0.3261
G1 X65.806 Y57.911 E0.3392
G1 X65.764 Y58.395 E0.3523
G1 X65.806 Y58.878 E0.3654
G1 X65.932 Y59.348 E0.3785
G1 X66.137 Y59.788 E0.3916
G1 X66.416 Y60.186 E0.4047
G1 X66.759 Y60.529 E0.4177
G1 X67.157 Y60.808 E0.4308
G1 X67.597 Y61.013 E0.4439
G1 X68.066 Y61.139 E0.4570
G1 X68.270 Y61.156 E0.4625
G1 X68.270 Y64.881 E0.5628
G1 X73.330 Y64.881 E0.6992
G1 X73.330 Y58.921 E0.8597
G1 X71.290 Y58.921 E0.9147
G1 X71.336 Y58.395 E0.9289
G1 X71.294 Y57.911 E0.9420
G1 X71.168 Y57.441 E0.9551
G1 X70.963 Y57.001 E0.9682
G1 X70.703 Y56.630 E0.9804
G1 X79.297 Y56.630 E1.2119
G1 X79.037 Y57.001 E1.2241
G1 X78.832 Y57.442 E1.2372
G1 X78.706 Y57.911 E1.2503
G1 X78.664 Y58.395 E1.2634
G1 X78.710 Y58.921 E1.2776
G1 X76.670 Y58.921 E1.3326
G1 X76.670 Y64.881 E1.4931
G1 X81.730 Y64.881 E1.6294
G1 X81.730 Y61.156 E1.7298
G1 X81.934 Y61.139 E1.7353
G1 X82.403 Y61.013 E1.7484
G1 X82.843 Y60.808 E1.7615
G1 X83.241 Y60.529 E1.7746
G1 X83.584 Y60.186 E1.7876
G1 X83.863 Y59.788 E1.8007
G1 X84.068 Y59.348 E1.8138
G1 X84.194 Y58.878 E1.8269
G1 X84.236 Y58.395 E1.8400
G1 X84.194 Y57.911 E1.8531
G1 X84.068 Y57.442 E1.8662
G1 X83.863 Y57.001 E1.8792
G1 X83.603 Y56.630 E1.8915
G1 X94.770 Y56.630 E2.1923
G1 X94.770 Y58.803 E2.2508
G1 X94.657 Y58.858 E2.2542
G1 X94.016 Y59.322 E2.2755
G1 X93.465 Y59.888 E2.2968
G1 X93.020 Y60.542 E2.3181
G1 X92.695 Y61.263 E2.3394
G1 X92.571 Y61.744 E2.3528
G1 X92.252 Y61.424 E2.3650
G1 X91.818 Y61.120 E2.3793
G1 X91.339 Y60.897 E2.3935
G1 X90.827 Y60.760 E2.4078
G1 X90.300 Y60.714 E2.4220
G1 X89.773 Y60.760 E2.4363
G1 X89.261 Y60.897 E2.4505
G1 X88.782 Y61.120 E2.4648
G1 X88.348 Y61.424 E2.4791
G1 X87.974 Y61.798 E2.4933
G1 X87.670 Y62.232 E2.5076
G1 X87.447 Y62.711 E2.5218
G1 X87.310 Y63.223 E2.5361
G1 X87.264 Y63.750 E2.5504
G1 X87.310 Y64.277 E2.5646
G1 X87.447 Y64.789 E2.5789
G1 X87.670 Y65.268 E2.5931
G1 X87.974 Y65.702 E2.6074
G1 X88.348 Y66.076 E2.6217
G1 X88.782 Y66.380 E2.6359
G1 X89.261 Y66.603 E2.6502
G1 X89.773 Y66.740 E2.6644
G1 X90.300 Y66.786 E2.6787
G1 X90.827 Y66.740 E2.6930
G1 X91.339 Y66.603 E2.7072
G1 X91.818 Y66.380 E2.7215
G1 X92.252 Y66.076 E2.7357
G1 X92.626 Y65.702 E2.7500
G1 X93.062 Y65.079 E2.7705
G1 X93.520 Y65.725 E2.7918
G1 X94.082 Y66.281 E2.8131
G1 X94.731 Y66.732 E2.8344
G1 X95.448 Y67.064 E2.8557
G1 X96.212 Y67.268 E2.8770
G1 X96.927 Y67.330 E2.8963
G1 X98.120 Y67.330 E2.9285
G1 X98.120 Y75.330 E3.1440
G1 X101.320 Y75.330 E3.2302
G1 X101.320 Y96.067 E3.7889
G1 X100.817 Y96.129 E3.8025
G1 X100.313 Y96.280 E3.8167
G1 X99.843 Y96.515 E3.8309
G1 X99.419 Y96.826 E3.8450
G1 X99.054 Y97.204 E3.8592
G1 X98.759 Y97.639 E3.8733
G1 X98.542 Y98.118 E3.8875
G1 X98.409 Y98.626 E3.9017
G1 X98.364 Y99.150 E3.9158
G1 X98.409 Y99.674 E3.9300
G1 X98.542 Y100.182 E3.9442
G1 X98.759 Y100.661 E3.9583
G1 X99.054 Y101.096 E3.9725
G1 X99.419 Y101.474 E3.9866
G1 X99.843 Y101.785 E4.0008
G1 X100.222 Y101.974 E4.0122
G1 X100.152 Y102.270 E4.0204
G1 X49.848 Y102.270 E5.3756
G1 X49.778 Y101.974 E5.3838
G1 X50.157 Y101.785 E5.3952
G1 X50.581 Y101.474 E5.4094
G1 X50.946 Y101.096 E5.4235
G1 X51.241 Y100.661 E5.4377
G1 X51.458 Y100.182 E5.4519
G1 X51.591 Y99.674 E5.4660
G1 X51.636 Y99.150 E5.4802
G1 X51.591 Y98.626 E5.4943
G1 X51.458 Y98.118 E5.5085
G1 X51.241 Y97.639 E5.5227
G1 X50.946 Y97.204 E5.5368
G1 X50.581 Y96.826 E5.5510
G1 X50.157 Y96.515 E5.5651
G1 X49.687 Y96.280 E5.5793
G1 X49.183 Y96.129 E5.5935
G1 X48.680 Y96.067 E5.6071
G1 X48.680 Y75.330 E6.1658
G1 X51.880 Y75.330 E6.2520
G1 X51.880 Y67.330 E6.4675
G1 X53.073 Y67.330 E6.4997
G1 X53.788 Y67.268 E6.5190
G1 X54.552 Y67.064 E6.5403
G1 X55.269 Y66.732 E6.5616
G1 X55.918 Y66.281 E6.5829
G1 X56.480 Y65.725 E6.6042
G1 X56.938 Y65.079 E6.6255
G1 X57.374 Y65.702 E6.6460
G1 X57.748 Y66.076 E6.6603
G1 X58.182 Y66.380 E6.6745
G1 X58.661 Y66.603 E6.6888
G1 X59.173 Y66.740 E6.7031
G1 X59.700 Y66.786 E6.7173
G1 X60.227 Y66.740 E6.7316
G1 X60.739 Y66.603 E6.7458
G1 X61.218 Y66.380 E6.7601
G1 X61.652 Y66.076 E6.7744
G1 X62.026 Y65.702 E6.7886
G1 X62.331 Y65.267 E6.8029
G1 X62.555 Y64.784 E6.8173
G1 X62.690 Y64.277 E6.8314
G1 X62.736 Y63.750 E6.8456
